icons/2_Variations/Stake bg.var.svg

<svg width="1024" height="1024" viewBox="0 0 1024 1024" fill="none" xmlns="http://www.w3.org/2000/svg">
<g clip-path="url(#clip0_3_272)">
<path d="M512 1024C794.77 1024 1024 794.77 1024 512C1024 229.23 794.77 0 512 0C229.23 0 0 229.23 0 512C0 794.77 229.23 1024 512 1024Z" fill="#F8C18C"/>
<path d="M324.22 390.091C312.881 388.196 301.295 388.348 290.01 390.541C272.45 394.431 262.64 407.011 259.21 431.691L258.12 439.431C254.58 462.951 261.25 478.561 273.91 500.591L283.42 517.391C294.51 536.961 298.22 545.391 295.22 564.831C294.22 571.831 292.98 578.831 290.5 583.391C288.02 587.951 285.5 589.941 280.98 590.281C274.3 590.791 269.38 586.571 270.74 576.051L276.91 531.411L243.45 531.991L236.9 579.341C233.59 602.341 242.54 617.341 261.08 622.151C267.45 623.801 283.85 624.771 296.83 621.051C315.17 615.771 326.13 599.891 329.83 571.531L330.91 563.481C334.39 534.401 326.42 521.271 312.04 492.481L302.83 474.691C293.62 456.901 291.03 450.821 292.38 438.451L293.19 432.521C294.13 427.781 296.35 419.811 304.03 419.681C309.34 419.591 313.62 423.831 312.29 433.421L307.91 464.681L340.76 464.101L346 426.671C348.86 406.001 341.34 393.281 324.22 390.091ZM470.49 388.161L365.15 390.001L360.55 423.741L396.64 423.101L369 619.631L402.77 619.041L430.37 422.511L465.84 421.891L470.49 388.161ZM432.74 618.521L463.74 617.971L472 582.971L498.28 582.511L497.1 617.411L529.33 616.841L532.41 387.111L492.2 387.811L432.74 618.521ZM670.41 384.651L636.33 385.251L598.88 473.901L611.16 385.691L577.4 386.281L545.16 616.531L578.92 615.941L592.92 516.941L606.92 615.491L641.6 614.871L624.15 493.201L670.41 384.651ZM655.52 614.651L733.8 613.271L738.72 578.271L694.21 579.051L703.49 512.511L736.96 511.931L741.88 476.931L708.41 477.511L716.88 417.161L759.56 416.411L764.2 383.001L687.76 384.341L655.52 614.651ZM789.25 444.821L809.83 444.461L813.5 342.381L789.25 444.821Z" fill="white"/>
</g>
<defs>
<clipPath id="clip0_3_272">
<rect width="1024" height="1024" fill="white"/>
</clipPath>
</defs>
</svg>

<svg width="1024" height="1024" fill="none" xmlns="http://www.w3.org/2000/svg"><g clip-path="url(#a)"><path d="M512 1024c282.77 0 512-229.23 512-512S794.77 0 512 0 0 229.23 0 512s229.23 512 512 512Z" fill="#F8C18C"/><path d="M324.22 390.091a96.202 96.202 0 0 0-34.21.45c-17.56 3.89-27.37 16.47-30.8 41.15l-1.09 7.74c-3.54 23.52 3.13 39.13 15.79 61.16l9.51 16.8c11.09 19.57 14.8 28 11.8 47.44-1 7-2.24 14-4.72 18.56-2.48 4.56-5 6.55-9.52 6.89-6.68.51-11.6-3.71-10.24-14.23l6.17-44.64-33.46.58-6.55 47.35c-3.31 23 5.64 38 24.18 42.81 6.37 1.65 22.77 2.62 35.75-1.1 18.34-5.28 29.3-21.16 33-49.52l1.08-8.05c3.48-29.08-4.49-42.21-18.87-71l-9.21-17.79c-9.21-17.79-11.8-23.87-10.45-36.24l.81-5.93c.94-4.74 3.16-12.71 10.84-12.84 5.31-.09 9.59 4.15 8.26 13.74l-4.38 31.26 32.85-.58 5.24-37.43c2.86-20.67-4.66-33.39-21.78-36.58Zm146.27-1.93-105.34 1.84-4.6 33.74 36.09-.64L369 619.631l33.77-.59 27.6-196.53 35.47-.62 4.65-33.73Zm-37.75 230.36 31-.55 8.26-35 26.28-.46-1.18 34.9 32.23-.57 3.08-229.73-40.21.7-59.46 230.71Zm237.67-233.87-34.08.6-37.45 88.65 12.28-88.21-33.76.59-32.24 230.25 33.76-.59 14-99 14 98.55 34.68-.62-17.45-121.67 46.26-108.55Zm-14.89 230 78.28-1.38 4.92-35-44.51.78 9.28-66.54 33.47-.58 4.92-35-33.47.58 8.47-60.35 42.68-.75 4.64-33.41-76.44 1.34-32.24 230.31Zm133.73-169.83 20.58-.36 3.67-102.08-24.25 102.44Z" fill="#fff"/></g><defs><clipPath id="a"><path fill="#fff" d="M0 0h1024v1024H0z"/></clipPath></defs></svg>
